X: 1
T: Planksty Plunket
B: A COLECTION of the most Celebrated Irish Tunes5b
M: 6/4
L: 1/8
K: Am
|: e2c2BA G2E2D2 | E2G2G2 B3cd2 | c2B2A2 a2g2a2 | g2e2g2 e2c2e2 | d4d2 dcded2 | edefg2 g3agd |
   e2a2a2 a3ba2 | g2e2e2 e4a2 | g2e2e2 d2B2B2 | e2A2A2 G2E2E2 | ABc2A2 Bcd2B2 | cde2E2 A2A2A2 :|
|: E2G2G2 GFGAG2 | E2A2A2 AGABA2 | G2B2B2 G2B2B2 | c2e2e2 e4ga | b2gab2 a2fga2 | g2efg2 f2def2 |
   g2efg2 a2efa2 | g2B2B2 B4g2 | d2B2G2 d2B2G2 | e2c2A2 e2c2A2 | ABc2A2 G2E2C2 | E2A2A2 A6 :|
